@fiction/themes/fiction/img/favicon.svg

<svg viewBox="0 0 141 145" fill="none" xmlns="http://www.w3.org/2000/svg">
<style>
    path {
        fill: black;
    }
    @media (prefers-color-scheme: dark) {
        path { fill: white; }
    }
</style>
<path d="M121.209 145.004H60.3875C56.4361 145.004 52.7248 143.421 49.9304 140.529L3.58277 92.6864C0.0788671 89.0734 -0.958114 83.6812 0.930283 78.9657C2.8296 74.2394 7.25041 71.183 12.2061 71.183H68.9999V12.5674C68.9999 7.46994 71.958 2.9073 76.5317 0.942533C81.0289 -0.98949 86.3994 0.112964 89.8378 3.66046L136.207 51.5135C139.002 54.4061 140.53 58.2374 140.53 62.3088V125.061C140.53 136.053 131.863 144.993 121.209 144.993V145.004ZM62.7999 123.621H119.266V64.9831L89.6522 34.2345V92.8719H33.1968L62.8108 123.621H62.7999Z"/>
</svg>

<svg xmlns="http://www.w3.org/2000/svg" viewBox="0 0 141 145">
  <style>
    path { fill: #000; } /* Default color for light mode */
    @media (prefers-color-scheme: dark) {
      path { fill: #fff; } /* Color for dark mode */
    }
  </style>
  <path d="M121.209 145H60.388c-3.952 0-7.663-1.583-10.458-4.475L3.583 92.686c-3.504-3.613-5.54-9.005-3.653-13.72 1.9-4.727 6.32-7.783 11.276-7.783H69V12.567c0-5.097 2.958-9.66 7.532-11.625 4.497-1.932 9.867-.83 13.306 2.718l46.369 47.853c2.795 2.893 4.323 6.724 4.323 10.796v62.752c0 10.992-8.667 19.932-19.321 19.932V145zM62.8 123.621h56.466V64.983L89.652 34.235v58.637H33.197l29.614 30.749H62.8z"/>
</svg>
